extensions/images/svgs/ESC.svg

<svg fill="none" height="10" viewBox="0 0 21 10" width="21" xmlns="http://www.w3.org/2000/svg"><path d="m.96875 9v-8h4.82812v.85937h-3.85937v2.70313h3.60938v.85937h-3.60938v2.71875h3.92188v.85938zm10.94925-6c-.0469-.39583-.237-.70312-.5703-.92188-.3334-.21875-.7422-.32812-1.2266-.32812-.35417 0-.66407.05729-.92969.17187-.26302.11459-.46875.27214-.61719.47266-.14583.20052-.21875.42839-.21875.68359 0 .21355.05078.39714.15234.55079.10417.15104.23698.27734.39844.3789.16146.09896.33073.18099.50781.2461.17709.0625.33985.11328.48828.15234l.81246.21875c.2084.05469.4401.13021.6954.22656.2578.09636.5039.22787.7382.39453.237.16407.4323.375.586.63282.1536.25781.2304.57421.2304.94921 0 .4323-.1132.82292-.3398 1.17188-.224.34896-.5521.6263-.9844.83203-.4297.20573-.9518.3086-1.5664.3086-.5729 0-1.06899-.09245-1.48826-.27735-.41667-.18489-.74479-.44271-.98438-.77344-.23698-.33073-.37109-.71484-.40234-1.15234h1c.02604.30208.1276.55208.30469.75.17968.19531.40625.34115.67968.4375.27605.09375.57292.14062.89061.14062.3698 0 .7018-.05989.9961-.17968.2943-.1224.5274-.29167.6992-.50782.1719-.21875.2578-.47395.2578-.76562 0-.26563-.0742-.48177-.2226-.64844-.1484-.16666-.3438-.30208-.5859-.40625-.2422-.10416-.504-.19531-.7852-.27344l-.98438-.28125c-.625-.17968-1.11979-.43619-1.48438-.76953-.36458-.33333-.54687-.76953-.54687-1.30859 0-.44792.12109-.83854.36328-1.17188.24479-.33593.57292-.59635.98437-.78125.41407-.187495.87631-.281245 1.38668-.281245.5157 0 .974.092448 1.375.277345.4011.18229.7188.43229.9532.75.2369.31771.3619.67838.375 1.08203zm9.0771.5h-.9687c-.0573-.27865-.1576-.52344-.3008-.73438-.1406-.21093-.3125-.38802-.5156-.53124-.2006-.14584-.4232-.25521-.668-.32813s-.5-.10938-.7656-.10938c-.4844 0-.9232.1224-1.3164.36719-.3907.24479-.7019.60547-.9336 1.08203-.2292.47657-.3438 1.0612-.3438 1.75391s.1146 1.27734.3438 1.75391c.2317.47656.5429.83724.9336 1.08203.3932.24479.832.36718 1.3164.36718.2656 0 .5208-.03645.7656-.10937s.4674-.18099.668-.32422c.2031-.14583.375-.32422.5156-.53516.1432-.21354.2435-.45833.3008-.73437h.9687c-.0729.40885-.2057.77474-.3984 1.09766-.1927.32291-.4323.59765-.7188.82421-.2864.22396-.608.39454-.9648.51172-.3542.11719-.7331.17578-1.1367.17578-.6823 0-1.2891-.16666-1.8203-.49999-.5313-.33334-.9493-.8073-1.254-1.42188-.3046-.61458-.457-1.34375-.457-2.1875s.1524-1.57292.457-2.1875c.3047-.61458.7227-1.08854 1.254-1.42188.5312-.33333 1.138-.499995 1.8203-.499995.4036 0 .7825.058593 1.1367.175785.3568.11718.6784.28906.9648.51562.2865.22396.5261.4974.7188.82031.1927.32032.3255.6862.3984 1.09766z" fill="#353536"/></svg>

<svg width="21" height="10" viewBox="0 0 21 10" fill="none" xmlns="http://www.w3.org/2000/svg">
<path d="M0.96875 9V1H5.79687V1.85937H1.9375V4.5625H5.54688V5.42187H1.9375V8.14062H5.85938V9H0.96875ZM11.918 3C11.8711 2.60417 11.681 2.29688 11.3477 2.07812C11.0143 1.85937 10.6055 1.75 10.1211 1.75C9.76693 1.75 9.45703 1.80729 9.19141 1.92187C8.92839 2.03646 8.72266 2.19401 8.57422 2.39453C8.42839 2.59505 8.35547 2.82292 8.35547 3.07812C8.35547 3.29167 8.40625 3.47526 8.50781 3.62891C8.61198 3.77995 8.74479 3.90625 8.90625 4.00781C9.06771 4.10677 9.23698 4.1888 9.41406 4.25391C9.59115 4.31641 9.75391 4.36719 9.90234 4.40625L10.7148 4.625C10.9232 4.67969 11.1549 4.75521 11.4102 4.85156C11.668 4.94792 11.9141 5.07943 12.1484 5.24609C12.3854 5.41016 12.5807 5.62109 12.7344 5.87891C12.888 6.13672 12.9648 6.45312 12.9648 6.82812C12.9648 7.26042 12.8516 7.65104 12.625 8C12.401 8.34896 12.0729 8.6263 11.6406 8.83203C11.2109 9.03776 10.6888 9.14063 10.0742 9.14063C9.5013 9.14063 9.00521 9.04818 8.58594 8.86328C8.16927 8.67839 7.84115 8.42057 7.60156 8.08984C7.36458 7.75911 7.23047 7.375 7.19922 6.9375H8.19922C8.22526 7.23958 8.32682 7.48958 8.50391 7.6875C8.68359 7.88281 8.91016 8.02865 9.18359 8.125C9.45964 8.21875 9.75651 8.26562 10.0742 8.26562C10.444 8.26562 10.776 8.20573 11.0703 8.08594C11.3646 7.96354 11.5977 7.79427 11.7695 7.57812C11.9414 7.35937 12.0273 7.10417 12.0273 6.8125C12.0273 6.54687 11.9531 6.33073 11.8047 6.16406C11.6563 5.9974 11.4609 5.86198 11.2188 5.75781C10.9766 5.65365 10.7148 5.5625 10.4336 5.48437L9.44922 5.20312C8.82422 5.02344 8.32943 4.76693 7.96484 4.43359C7.60026 4.10026 7.41797 3.66406 7.41797 3.125C7.41797 2.67708 7.53906 2.28646 7.78125 1.95312C8.02604 1.61719 8.35417 1.35677 8.76562 1.17187C9.17969 0.984375 9.64193 0.890625 10.1523 0.890625C10.668 0.890625 11.1263 0.983073 11.5273 1.16797C11.9284 1.35026 12.2461 1.60026 12.4805 1.91797C12.7174 2.23568 12.8424 2.59635 12.8555 3H11.918ZM20.9951 3.5H20.0264C19.9691 3.22135 19.8688 2.97656 19.7256 2.76562C19.585 2.55469 19.4131 2.3776 19.21 2.23438C19.0094 2.08854 18.7868 1.97917 18.542 1.90625C18.2972 1.83333 18.042 1.79687 17.7764 1.79687C17.292 1.79687 16.8532 1.91927 16.46 2.16406C16.0693 2.40885 15.7581 2.76953 15.5264 3.24609C15.2972 3.72266 15.1826 4.30729 15.1826 5C15.1826 5.69271 15.2972 6.27734 15.5264 6.75391C15.7581 7.23047 16.0693 7.59115 16.46 7.83594C16.8532 8.08073 17.292 8.20312 17.7764 8.20312C18.042 8.20312 18.2972 8.16667 18.542 8.09375C18.7868 8.02083 19.0094 7.91276 19.21 7.76953C19.4131 7.6237 19.585 7.44531 19.7256 7.23437C19.8688 7.02083 19.9691 6.77604 20.0264 6.5H20.9951C20.9222 6.90885 20.7894 7.27474 20.5967 7.59766C20.404 7.92057 20.1644 8.19531 19.8779 8.42187C19.5915 8.64583 19.2699 8.81641 18.9131 8.93359C18.5589 9.05078 18.18 9.10937 17.7764 9.10937C17.0941 9.10937 16.4873 8.94271 15.9561 8.60938C15.4248 8.27604 15.0068 7.80208 14.7021 7.1875C14.3975 6.57292 14.2451 5.84375 14.2451 5C14.2451 4.15625 14.3975 3.42708 14.7021 2.8125C15.0068 2.19792 15.4248 1.72396 15.9561 1.39062C16.4873 1.05729 17.0941 0.890625 17.7764 0.890625C18.18 0.890625 18.5589 0.949218 18.9131 1.06641C19.2699 1.18359 19.5915 1.35547 19.8779 1.58203C20.1644 1.80599 20.404 2.07943 20.5967 2.40234C20.7894 2.72266 20.9222 3.08854 20.9951 3.5Z" fill="#353536"/>
</svg>
